overrides/.icons/action/dodge.svg

<?xml version="1.0" encoding="UTF-8" standalone="no"?>
<!-- Created with Inkscape (http://www.inkscape.org/) -->

<svg
   viewBox="0 0 24 24"
   version="1.1"
   id="svg1"
   xml:space="preserve"
   inkscape:version="1.3.2 (091e20e, 2023-11-25, custom)"
   sodipodi:docname="dodge.svg"

   xmlns:inkscape="http://www.inkscape.org/namespaces/inkscape"
   xmlns:sodipodi="http://sodipodi.sourceforge.net/DTD/sodipodi-0.dtd"
   xmlns:xlink="http://www.w3.org/1999/xlink"
   xmlns="http://www.w3.org/2000/svg"
   xmlns:svg="http://www.w3.org/2000/svg"><sodipodi:namedview
     id="namedview1"
     pagecolor="#ffffff"
     bordercolor="#666666"
     borderopacity="1.0"
     inkscape:showpageshadow="2"
     inkscape:pageopacity="0.0"
     inkscape:pagecheckerboard="0"
     inkscape:deskcolor="#d1d1d1"
     inkscape:document-units="px"
     inkscape:zoom="5.6568543"
     inkscape:cx="40.481863"
     inkscape:cy="19.180271"
     inkscape:window-width="1360"
     inkscape:window-height="715"
     inkscape:window-x="-8"
     inkscape:window-y="-8"
     inkscape:window-maximized="1"
     inkscape:current-layer="layer1" /><defs
     id="defs1"><inkscape:path-effect
       effect="fillet_chamfer"
       id="path-effect5"
       is_visible="true"
       lpeversion="1"
       nodesatellites_param="F,0,0,1,0,0,0,1 @ F,0,0,1,0,0,0,1 @ F,0,0,1,0,0,0,1 @ F,0,0,1,0,0,0,1 @ F,0,0,1,0,0,0,1 @ F,0,0,1,0,0,0,1 @ F,0,0,1,0,0,0,1 @ F,0,0,1,0,0,0,1 @ F,0,0,1,0,0,0,1 @ F,0,0,1,0,0,0,1 @ F,0,0,1,0,0,0,1 @ F,0,0,1,0,0,0,1 @ F,0,0,1,0,0,0,1 @ F,0,0,1,0,0,0,1 @ F,0,0,1,0,0,0,1 @ F,0,0,1,0,0,0,1 | F,0,0,1,0,0,0,1 @ F,0,0,1,0,0,0,1 @ F,0,0,1,0,0,0,1 @ F,0,0,1,0,0,0,1 @ F,0,0,1,0,0,0,1 @ F,0,0,1,0,1.8580295,0,1 @ F,0,0,1,0,1.9272322,0,1 @ F,0,1,1,0,1.8580295,0,1 @ F,0,0,1,0,0,0,1 @ F,0,0,1,0,0,0,1 @ F,0,0,1,0,0,0,1 @ F,0,0,1,0,0,0,1"
       radius="0"
       unit="px"
       method="auto"
       mode="F"
       chamfer_steps="1"
       flexible="false"
       use_knot_distance="true"
       apply_no_radius="true"
       apply_with_radius="true"
       only_selected="false"
       hide_knots="false" /><inkscape:path-effect
       effect="fillet_chamfer"
       id="path-effect4"
       is_visible="true"
       lpeversion="1"
       nodesatellites_param="F,0,0,1,0,0,0,1 @ F,0,1,1,0,27.077203,0,1 @ F,0,0,1,0,0,0,1 @ F,0,1,1,0,27.077203,0,1 @ F,0,0,1,0,0,0,1 @ F,0,0,1,0,27.077203,0,1 @ F,0,0,1,0,0,0,1 @ F,0,1,1,0,27.077203,0,1"
       radius="0"
       unit="px"
       method="auto"
       mode="F"
       chamfer_steps="1"
       flexible="false"
       use_knot_distance="true"
       apply_no_radius="true"
       apply_with_radius="true"
       only_selected="false"
       hide_knots="false" /><inkscape:path-effect
       effect="fillet_chamfer"
       id="path-effect3"
       is_visible="true"
       lpeversion="1"
       nodesatellites_param="F,0,0,1,0,0,0,1 @ F,0,0,1,0,0,0,1 @ F,0,0,1,0,0,0,1 @ F,0,0,1,0,0,0,1 @ F,0,0,1,0,0,0,1 @ F,0,0,1,0,0,0,1 @ F,0,0,1,0,0,0,1 @ F,0,0,1,0,0,0,1 @ F,0,0,1,0,0,0,1 @ F,0,0,1,0,0,0,1 @ F,0,0,1,0,0,0,1 @ F,0,0,1,0,0,0,1"
       radius="0"
       unit="px"
       method="auto"
       mode="F"
       chamfer_steps="1"
       flexible="false"
       use_knot_distance="true"
       apply_no_radius="true"
       apply_with_radius="true"
       only_selected="false"
       hide_knots="false" /><inkscape:path-effect
       effect="fillet_chamfer"
       id="path-effect2"
       is_visible="true"
       lpeversion="1"
       nodesatellites_param="F,0,0,1,0,0,0,1 @ F,0,1,1,0,14.213301,0,1 @ F,0,0,1,0,0,0,1 @ F,0,1,1,0,14.213301,0,1 @ F,0,0,1,0,0,0,1 @ F,0,0,1,0,14.213301,0,1 @ F,0,0,1,0,0,0,1 @ F,0,1,1,0,14.213301,0,1"
       radius="0"
       unit="px"
       method="auto"
       mode="F"
       chamfer_steps="1"
       flexible="false"
       use_knot_distance="true"
       apply_no_radius="true"
       apply_with_radius="true"
       only_selected="false"
       hide_knots="false" /><inkscape:path-effect
       effect="fillet_chamfer"
       id="path-effect1"
       is_visible="true"
       lpeversion="1"
       nodesatellites_param="F,0,0,1,0,0,0,1 @ F,0,0,1,0,0,0,1 @ F,0,0,1,0,0,0,1 @ F,0,0,1,0,0,0,1 @ F,0,0,1,0,0,0,1 @ F,0,0,1,0,0,0,1 @ F,0,0,1,0,0,0,1 @ F,0,0,1,0,0,0,1"
       radius="0"
       unit="px"
       method="auto"
       mode="F"
       chamfer_steps="1"
       flexible="false"
       use_knot_distance="true"
       apply_no_radius="true"
       apply_with_radius="true"
       only_selected="false"
       hide_knots="false" /><inkscape:path-effect
       effect="fillet_chamfer"
       id="path-effect4-4"
       is_visible="true"
       lpeversion="1"
       nodesatellites_param="F,0,0,1,0,0,0,1 @ F,0,1,1,0,27.077203,0,1 @ F,0,0,1,0,0,0,1 @ F,0,1,1,0,27.077203,0,1 @ F,0,0,1,0,0,0,1 @ F,0,0,1,0,27.077203,0,1 @ F,0,0,1,0,0,0,1 @ F,0,1,1,0,27.077203,0,1"
       radius="0"
       unit="px"
       method="auto"
       mode="F"
       chamfer_steps="1"
       flexible="false"
       use_knot_distance="true"
       apply_no_radius="true"
       apply_with_radius="true"
       only_selected="false"
       hide_knots="false" /><inkscape:path-effect
       effect="fillet_chamfer"
       id="path-effect4-9"
       is_visible="true"
       lpeversion="1"
       nodesatellites_param="F,0,0,1,0,0,0,1 @ F,0,1,1,0,27.077203,0,1 @ F,0,0,1,0,0,0,1 @ F,0,1,1,0,27.077203,0,1 @ F,0,0,1,0,0,0,1 @ F,0,0,1,0,27.077203,0,1 @ F,0,0,1,0,0,0,1 @ F,0,1,1,0,27.077203,0,1"
       radius="0"
       unit="px"
       method="auto"
       mode="F"
       chamfer_steps="1"
       flexible="false"
       use_knot_distance="true"
       apply_no_radius="true"
       apply_with_radius="true"
       only_selected="false"
       hide_knots="false" /><inkscape:path-effect
       effect="fillet_chamfer"
       id="path-effect4-5"
       is_visible="true"
       lpeversion="1"
       nodesatellites_param="F,0,0,1,0,0,0,1 @ F,0,1,1,0,27.077203,0,1 @ F,0,0,1,0,0,0,1 @ F,0,1,1,0,27.077203,0,1 @ F,0,0,1,0,0,0,1 @ F,0,0,1,0,27.077203,0,1 @ F,0,0,1,0,0,0,1 @ F,0,1,1,0,27.077203,0,1"
       radius="0"
       unit="px"
       method="auto"
       mode="F"
       chamfer_steps="1"
       flexible="false"
       use_knot_distance="true"
       apply_no_radius="true"
       apply_with_radius="true"
       only_selected="false"
       hide_knots="false" /><inkscape:path-effect
       effect="fillet_chamfer"
       id="path-effect4-5-8"
       is_visible="true"
       lpeversion="1"
       nodesatellites_param="F,0,0,1,0,0,0,1 @ F,0,1,1,0,27.077203,0,1 @ F,0,0,1,0,0,0,1 @ F,0,1,1,0,27.077203,0,1 @ F,0,0,1,0,0,0,1 @ F,0,0,1,0,27.077203,0,1 @ F,0,0,1,0,0,0,1 @ F,0,1,1,0,27.077203,0,1"
       radius="0"
       unit="px"
       method="auto"
       mode="F"
       chamfer_steps="1"
       flexible="false"
       use_knot_distance="true"
       apply_no_radius="true"
       apply_with_radius="true"
       only_selected="false"
       hide_knots="false" /><inkscape:path-effect
       effect="fillet_chamfer"
       id="path-effect4-5-8-6"
       is_visible="true"
       lpeversion="1"
       nodesatellites_param="F,0,0,1,0,0,0,1 @ F,0,1,1,0,27.077203,0,1 @ F,0,0,1,0,0,0,1 @ F,0,1,1,0,27.077203,0,1 @ F,0,0,1,0,0,0,1 @ F,0,0,1,0,27.077203,0,1 @ F,0,0,1,0,0,0,1 @ F,0,1,1,0,27.077203,0,1"
       radius="0"
       unit="px"
       method="auto"
       mode="F"
       chamfer_steps="1"
       flexible="false"
       use_knot_distance="true"
       apply_no_radius="true"
       apply_with_radius="true"
       only_selected="false"
       hide_knots="false" /><inkscape:path-effect
       effect="fillet_chamfer"
       id="path-effect37-4"
       is_visible="true"
       lpeversion="1"
       nodesatellites_param="F,0,1,1,0,1.0689558,0,1 @ F,0,1,1,0,1.0689558,0,1 @ F,0,0,1,0,1.0689558,0,1"
       radius="0"
       unit="px"
       method="auto"
       mode="F"
       chamfer_steps="1"
       flexible="false"
       use_knot_distance="true"
       apply_no_radius="true"
       apply_with_radius="true"
       only_selected="false"
       hide_knots="false" /></defs><g
     inkscape:label="Layer 1"
     inkscape:groupmode="layer"
     id="layer1"
     transform="translate(1.2236983,-0.06614588)"><image
       width="6.6145835"
       height="6.6145835"
       preserveAspectRatio="none"
       style="image-rendering:optimizeQuality"
       xlink:href="data:image/png;base64,iVBORw0KGgoAAAANSUhEUgAAABkAAAAZCAYAAADE6YVjAAAABHNCSVQICAgIfAhkiAAAAXZJREFU&#10;SInt1c1KVWEUxvG3c47mB07siMopcpCzkO7AWxARHGjiKBpYEE0bRjMbldSgHDbrDoJyFASCVyCk&#10;iJUaqNBEz6/BXtFG/Gp79iif6eZd/7WeZ73vTulSZQsD6Cwb8A7jZUIeo4mPuH6eM5UCnLWU0k5K&#10;aTSl9AgdBWqcLtTwAPvYxT1UW1W8ihvoRAfmcYjvmLkwCFcxiWU8DGAvXkc+33C/kHVR/A4WsCPT&#10;D8yign68xQH28Bw3jyt0JQ60oRt1DEfni/ga3ea1GRa14RpeRkZNfI4mGqjlQe2x/6N4gk/YdrpW&#10;cDvON/A+920rMus7Ok0NXdHZrZjkFVaPmWQD0zFJPezcly3CEqai6bOXIYqM4EV0RxbyXX8zeRPF&#10;f+IZGv8cfs7OMXzBXAB6ZaE3sRbg9kKAHKiCIdly9ITnB1jHOIq8HifCqrL361dYNNNSQEAmZHel&#10;iacXtugEyJ9X+AMGWw4ISPn/kwANoqtUyP+r33T2WdwzhxiHAAAAAElFTkSuQmCC&#10;"
       id="image1"
       x="174.22902"
       y="132.1955" /><path
       id="path3-6"
       style="stroke:none;stroke-width:0.0501204;paint-order:stroke markers fill"
       inkscape:transform-center-x="-1.2499981"
       inkscape:transform-center-y="-19.062492"
       d="M 4.0360673 1.1325521 A 0.50319323 0.50319323 0 0 0 3.6805986 1.9919271 L 9.9169267 8.2282553 A 1.2148161 1.2148161 0 0 0 11.635677 8.2282553 L 17.872005 1.9919271 A 0.50319325 0.50319325 0 0 0 17.516536 1.1325521 L 4.0360673 1.1325521 z M 4.811458 5.3356771 L 2.202083 6.8415365 C 1.6024125 7.1873382 1.233039 7.8270406 1.233333 8.5192709 L 1.233333 17.304427 C 1.233039 17.996657 1.6024135 18.63636 2.202083 18.982162 L 7.9403642 21.78099 C 8.5783896 21.31023 8.7474529 21.273618 8.7333329 20.386458 C 8.662453 15.372137 12.651267 11.240269 17.664974 11.134505 C 18.561825 11.118005 19.92496 11.390083 20.25677 10.665755 L 20.31927 8.5192709 C 20.319967 7.8274436 19.951392 7.1878352 19.352474 6.8415365 L 16.743099 5.3356771 L 11.791927 10.286849 C 11.230817 10.847288 10.321787 10.847288 9.7606767 10.286849 L 4.811458 5.3356771 z M 21.635677 13.066146 L 18.514583 15.003646 A 3.8025587 3.8025587 0 0 1 15.524349 15.445052 L 14.549739 15.185287 L 14.840755 16.15013 A 5.7839082 5.7839082 0 0 1 14.889583 19.318099 L 14.627864 20.294662 L 15.594661 20.001693 A 5.7839052 5.7839052 0 0 1 18.76263 19.952865 L 19.737239 20.214583 L 19.446224 19.247787 A 3.8025577 3.8025577 0 0 1 19.795833 16.245833 L 21.635677 13.066146 z M 11.776302 14.786849 L 12.248958 16.351302 A 9.3739178 9.3739178 0 0 1 12.327083 21.488021 L 11.905208 23.066146 L 13.469661 22.59349 A 9.3739128 9.3739128 0 0 1 18.604427 22.513412 L 20.184505 22.93724 L 19.711849 21.372787 A 9.3739136 9.3739136 0 0 1 19.612239 20.954818 L 19.164974 20.835677 A 7.749101 7.749101 0 0 0 14.920833 20.90013 L 13.625911 21.290755 L 13.97552 19.984115 A 7.7491055 7.7491055 0 0 0 13.911067 15.739974 L 13.776302 15.298568 A 9.3739186 9.3739186 0 0 1 13.35638 15.210677 L 11.776302 14.786849 z " /><path
       id="path3-8"
       style="fill:#800000;stroke-width:0.265491;paint-order:stroke markers fill"
       transform="matrix(0,0,0,0,-7.6042414,5.767764)"
       d="m 100.86819,141.03352 -14.492313,8.0671 a 95.07007,95.07007 135 0 0 -36.82834,36.82834 l -8.067091,14.4923 -8.067091,-14.4923 A 95.070076,95.070076 45.000001 0 0 -3.4149848,149.10062 l -14.4923102,-8.0671 14.4923075,-8.06709 A 95.070023,95.070023 135 0 0 33.413353,96.138091 l 8.067093,-14.492309 8.067093,14.492309 A 95.070017,95.070017 44.999997 0 0 86.37588,132.96643 Z" /></g></svg>

<?xml version="1.0" encoding="UTF-8"?>
<!-- Created with Inkscape (http://www.inkscape.org/) -->
<svg id="svg1" version="1.1" viewBox="0 0 24 24" xml:space="preserve" xmlns="http://www.w3.org/2000/svg" xmlns:xlink="http://www.w3.org/1999/xlink"><g id="layer1" transform="translate(1.2237 -.066146)"><image id="image1" x="174.23" y="132.2" width="6.6146" height="6.6146" image-rendering="optimizeQuality" preserveAspectRatio="none" xlink:href="data:image/png;base64,iVBORw0KGgoAAAANSUhEUgAAABkAAAAZCAYAAADE6YVjAAAABHNCSVQICAgIfAhkiAAAAXZJREFU
SInt1c1KVWEUxvG3c47mB07siMopcpCzkO7AWxARHGjiKBpYEE0bRjMbldSgHDbrDoJyFASCVyCk
iJUaqNBEz6/BXtFG/Gp79iif6eZd/7WeZ73vTulSZQsD6Cwb8A7jZUIeo4mPuH6eM5UCnLWU0k5K
aTSl9AgdBWqcLtTwAPvYxT1UW1W8ihvoRAfmcYjvmLkwCFcxiWU8DGAvXkc+33C/kHVR/A4WsCPT
D8yign68xQH28Bw3jyt0JQ60oRt1DEfni/ga3ea1GRa14RpeRkZNfI4mGqjlQe2x/6N4gk/YdrpW
cDvON/A+920rMus7Ok0NXdHZrZjkFVaPmWQD0zFJPezcly3CEqai6bOXIYqM4EV0RxbyXX8zeRPF
f+IZGv8cfs7OMXzBXAB6ZaE3sRbg9kKAHKiCIdly9ITnB1jHOIq8HifCqrL361dYNNNSQEAmZHel
iacXtugEyJ9X+AMGWw4ISPn/kwANoqtUyP+r33T2WdwzhxiHAAAAAElFTkSuQmCC
"/><path id="path3-6" d="m4.0361 1.1326a0.50319 0.50319 0 0 0-0.35547 0.85938l6.2363 6.2363a1.2148 1.2148 0 0 0 1.7188 0l6.2363-6.2363a0.50319 0.50319 0 0 0-0.35547-0.85938h-13.48zm0.77539 4.2031-2.6094 1.5059c-0.59967 0.3458-0.96904 0.9855-0.96875 1.6777v8.7852c-2.94e-4 0.69223 0.36908 1.3319 0.96875 1.6777l5.7383 2.7988c0.63803-0.47076 0.80709-0.50737 0.79297-1.3945-0.07088-5.0143 3.9179-9.1462 8.9316-9.252 0.89685-0.0165 2.26 0.25558 2.5918-0.46875l0.0625-2.1465c6.97e-4 -0.69183-0.36788-1.3314-0.9668-1.6777l-2.6094-1.5059-4.9512 4.9512c-0.56111 0.56044-1.4701 0.56044-2.0313 0l-4.9492-4.9512zm16.824 7.7305-3.1211 1.9375a3.8026 3.8026 0 0 1-2.9902 0.44141l-0.97461-0.25976 0.29102 0.96484a5.7839 5.7839 0 0 1 0.048828 3.168l-0.26172 0.97656 0.9668-0.29297a5.7839 5.7839 0 0 1 3.168-0.048828l0.97461 0.26172-0.29102-0.9668a3.8026 3.8026 0 0 1 0.34961-3.002l1.8398-3.1797zm-9.8594 1.7207 0.47266 1.5645a9.3739 9.3739 0 0 1 0.078125 5.1367l-0.42188 1.5781 1.5645-0.47266a9.3739 9.3739 0 0 1 5.1348-0.080078l1.5801 0.42383-0.47266-1.5645a9.3739 9.3739 0 0 1-0.09961-0.41797l-0.44726-0.11914a7.7491 7.7491 0 0 0-4.2441 0.064453l-1.2949 0.39062 0.34961-1.3066a7.7491 7.7491 0 0 0-0.064453-4.2441l-0.13476-0.44141a9.3739 9.3739 0 0 1-0.41992-0.087891l-1.5801-0.42383z" style="paint-order:stroke markers fill"/><path id="path3-8" transform="matrix(0 0 0 0 -7.6042 5.7678)" d="m100.87 141.03-14.492 8.0671a95.07 95.07 135 0 0-36.828 36.828l-8.0671 14.492-8.0671-14.492a95.07 95.07 45 0 0-36.828-36.828l-14.492-8.0671 14.492-8.0671a95.07 95.07 135 0 0 36.828-36.828l8.0671-14.492 8.0671 14.492a95.07 95.07 45 0 0 36.828 36.828z" fill="#800000" stroke-width=".26549" style="paint-order:stroke markers fill"/></g></svg>
